X:1
T:Title
%%score { ( 1 3 4 ) | ( 2 5 ) }
L:1/8
M:4/4
K:Bb
V:1 treble nm="Grand Piano"
V:3 treble 
V:4 treble 
V:2 bass 
V:5 bass 
V:1
 z4 z2[Q:1/4=110] F>F | [DB]2 A>B [Dc]2 B>G | [EA]2 A2- [EA]2 F>F | %3
 [Ec]2 [D=B]>[Ec] [Fd]2 [Ec]>[CA] |[M:3/4] [DB]2 B2- [DB]2 |[M:1/4] F>F |[M:4/4] d2 _d>=d e2 d>=B | %7
 [Ec]2 [Ec]4 [EG]>[EG] | [=Ed]2 [Ec]>[EB] [EG]2 [EA]>[EB] |[M:7/8] c-c-c- c- c3 |[M:1/4] F2 | %11
[M:4/4] z2 [FB]2 [Ff]2 [Cc]2 | z2 [DG]2 [Dd]2 [A,A]2 | [G,G]2 [G,B,EG]2 [G,G]2 [G,=B,G]2 | %14
 z2 [CE]2 [CE]2 [G,CEG]2 | z2 F2 z2 F2 | [=B,=B]4 [Cc]4 | [FBd]2 [FBf]2 [FBf]2 [F_Ad]2 | %18
 [FAe]2 [F_Ad]2 [F=Ae]2 [EF]2 | z2 [FB]2 [Ff]2 [Cc]2 | z2 [DG]2 [Dd]2 [A,A]2 | %21
 [G,G]2 [G,B,EG]2 [G,G]2 [G,=B,G]2 | z2 E2 z2 G2 | z2 G2 z2 [GB]2 | [DBd]2 [FBf]2 [EBe]2 [FBd]2 | %25
 [Bc]2- [=EBc]2 [_Ed]2- [EAd]2 |[M:3/4] B6 |] %27
V:2
 z8 | [B,,F,]2 [F,,F,]2 [B,,F,]2 [F,,F,]2 | [C,F,]2 [F,,F,]2 [C,F,]2 z2 | %3
 [A,,F,]2 [F,,F,]2 [A,,F,]2 [F,,F,]2 |[M:3/4] [B,,F,]2 [F,,F,]2 [B,,F,]2 |[M:1/4] F,>F, | %6
[M:4/4][K:treble] [B,F]2 [B,=E]>[B,F] [G,=B,G]2 [G,B,F]>[G,DF] | [C,C]2 [C,G,]4 [C,C]>[C,C] | %8
 [C,B,]2 [C,B,]>[C,B,] [C,B,]2 [C,A,]>[C,G,] |[M:7/8] [F,A,F]2 [C,G,]2 [F,A,]3 |[M:1/4] F,2 | %11
[M:4/4] [B,,B,]4 [A,,A,]4 | [G,,G,]4 [F,,F,]4 | [E,,E,]2 [E,,E,]2 [D,,D,]2 [D,,D,]2 | %14
 C,2 G,,2 E,,2 C,,2 | [F,,F,]4 [G,,G,]4 | [_A,,_A,]4 [=A,,=A,]4 | %17
 [B,,B,]2 [D,D]2 [D,D]2 [=B,,=B,]2 | [C,C]2 [=B,,=B,]2 [C,C]2 [F,,F,]2 | [B,,B,]4 [A,,A,]4 | %20
 [G,,G,]4 [F,,F,]4 | [E,,E,]2 [E,,E,]2 [D,,D,]2 [D,,D,]2 | z2 C2 z2 [G,=B,F]2 | %23
 [E,,E,]4 [=E,,E,]4 | [F,,F,]2 [_A,,_A,]2 [G,,G,]2 [F,,F,]2 | %25
 [=E,,=E,]2 [G,,G,]2 [F,,F,]2 [F,,F,]2 |[M:3/4] [B,,B,]2 [F,,F,]2 [B,,,B,,]2 |] %27
V:3
 x8 | z2 D2 z2 D2 | z2 E2 z4 | x8 |[M:3/4] z2 D2 z2 |[M:1/4] x2 |[M:4/4] x8 | x8 | x8 | %9
[M:7/8] z2 =E2 _E3 |[M:1/4] x2 |[M:4/4] [Dd]4 z4 | [B,B]4 z4 | x8 | [G,G]6 z2 | [A,A]4 [B,B]4 | %16
 z2 F2 z2 F2 | x8 | x8 | [Dd]4 z4 | [B,B]4 z4 | x8 | [G,G]6 z2 | [Cc]4 [_D_d]4 | x8 | G2 z2 G2 z2 | %26
[M:3/4] [DF]2 [DF]2 [DF]2 |] %27
V:4
 x8 | x8 | x8 | x8 |[M:3/4] x6 |[M:1/4] x2 |[M:4/4] x8 | x8 | x8 |[M:7/8] x7 |[M:1/4] x2 | %11
[M:4/4] x8 | x8 | x8 | x8 | x8 | x8 | x8 | x8 | x8 | x8 | x8 | z4 D,4 | x8 | x8 | x8 |[M:3/4] x6 |] %27
V:5
 x8 | x8 | x8 | x8 |[M:3/4] x6 |[M:1/4] x2 |[M:4/4][K:treble] x8 | x8 | x8 |[M:7/8] x7 | %10
[M:1/4] x2 |[M:4/4] x8 | x8 | x8 | x8 | x8 | x8 | x8 | x8 | x8 | x8 | x8 | [C,,C,]4 D,,4 | x8 | %24
 x8 | x8 |[M:3/4] x6 |] %27

